X:217
T:Cherkessia Kfula
M:2/4
L:1/8
K:G
"G"[Bd][B2d2][Ac]|[GB][FA][D2G2]|"C"[Gc][G2c2][Bd]|[c2e2][c2e2]|
"G"[Bd][B2d2][Ac]|[1"G"[G2B2][F2A2]|"D"[A4d4]|"D7"[A4d4]:|\
[2"D"[G2B2][F2A2]|"G"[G4D4]|"G7"[G4D4]||
|:"C"[ce][c2e2][Bd]|[Ac][Bd][c2e2]|"G"[Bd][B2d2][Ac]|[GB][Ac][B2d2]|
"D"[Ac][A2c2][GB]|[1"D"[F2A2][GB][Ac]|"G"[B4d4]|"G7"[B4d4]:|\
[2"D7"[F2A2][GB][FA]|"G"[D4G4]|[D4G4]|]

%%newpage

